X: 30594
T: WAYS AND MEANS
C:
%R: jig
B: Elias Howe "The Musician's Companion" Part 3 1844 p.59 #4
S: http://imslp.org/wiki/The_Musician's_Companion_(Howe,_Elias)
S: https://archive.org/stream/firstthirdpartof03howe/#page/66/mode/1up
Z: 2015 John Chambers <jc:trillian.mit.edu>
N: Initial rest added to fix the rhythm.
M: 6/8
L: 1/8
K: G
% - - - - - - - - - - - - - - - - - - - - - - - - -
z |\
DFD d2B | AFD E2F | DFD d2e | fed (Bde) |\
fed edB | dAF E2F | AFA Afd | B2c d2 :|
|: d/e/ |\
fdf agf | ece gfe | fdf afg | afd (faf) |\
gbg faf | efd cBc | dAF Afd | B2c d2 :|
% - - - - - - - - - - - - - - - - - - - - - - - - -

